!!!!SEGMENT: pl-wumfc--r266--005_paderewski-ignacy-jan--tatra-album-andantino-quasi-allegretto.krn
!!!cenid: 18xx:3157
!!!COM: Paderewski, Ignacy Jan
!!!COM-rismID: pe30029943
!!!CDT: 1860/11/18-1941/06/29
!!!CNT: Polish
!!!GTL: Tatra Album
!!!OTL: Andantino quasi allegretto
!!!PDT:
!!!AGN:
!!!SMS-siglum: PL-Wumfc
!!!SMS-shelfmark: R266
!!!SMS-shelfwork: 005 G
!!!SMS-variant:
!!!SMS-altvar:
!!!NIFC-rismSourceID: 1001156306
!!!NIFC-islandoraID: pl-wumfc:309
!!!URL-pdf-islandora: https://repozytorium.nifc.pl/islandora/object/pl-wumfc%3A309/datastream/PDF/view
!!!URL-scan: https://polish.musicsources.pl/pl/lokalizacje/galeria/rekopisy/4686 @EN{Scan on Polish Music Sources Website} @PL{Skany w portalu Dziedzictwo Muzyki Polskiej w otwartym dostępie}
!!!ONB-nifc: UWAGA: zbiór zawiera utwory na 4 ręce numerowane I-VI. Nr 005 od skanu 0017
!!!AIN: 4 cemba
!!!key: A
**kern	**kern	**fing	**dynam	**kern	**fing	**kern	**fing	**dynam
*group2	*group2	*	*	*group1	*	*group1	*	*
*part4	*part3	*part 3	*part3	*part2	*part2	*part1	*part1	*part1
*staff4	*staff3	*	*	*staff2	*	*staff1	*	*
*I"[Clavier]	*I"[Clavier]	*	*	*I"[Clavier]	*	*I"[Clavier]	*	*
*Icemba	*Icemba	*	*	*Icemba	*	*Icemba	*	*
*ICklav	*ICklav	*	*	*ICklav	*	*ICklav	*	*
*clefF4	*clefF4	*	*	*clefG2	*	*clefG2	*	*
*k[f#c#g#]	*k[f#c#g#]	*	*	*k[f#c#g#]	*	*k[f#c#g#]	*	*
*A:	*A:	*	*	*A:	*	*A:	*	*
*M3/4	*M3/4	*	*	*M3/4	*	*M3/4	*	*
=1	=1	=1	=1	=1	=1	=1	=1	=1
!	!	!	!	!	!	!LO:TX:a:t=Allegretto.	!	!
!	!LO:TX:a:t=Allegretto.	!	!	!LO:TX:t=P:problem=4\right&colon; global	!	!LO:TX:t=P:problem=4\right&colon; global	!	!LO:DY:b:rj:t=mf.
2.r	2.r	.	.	(>4e\ 4b\	.	(>4g#\ 4gg#\	.	mf
.	.	.	.	2B\ 2f#)	.	2dd\)	.	.
=2	=2	=2	=2	=2	=2	=2	=2	=2
2.r	2.r	.	.	(>4e\ 4b	.	(>4g#\ 4gg#\	.	.
*	*	*	*	*2\right	*	*	*	*
.	.	.	.	2B\ 2f#)	.	2dd\)	.	.
=3	=3	=3	=3	=3	=3	=3	=3	=3
!	!	!	!	!LO:TX:t=P:4\left:problem	!	!	!	!LO:DY:b:t=pp.
2.r	2.r	.	.	4e\ (>4b	.	(>4g#\ 4gg#\	.	pp
.	.	.	.	4B\ 4f#	.	4dd\	.	.
!	!	!	!	!LO:TX:t=P:4\left:problem	!	!	!	!
.	.	.	.	4e\ 4b	.	4g#\ 4gg#\	.	.
=4	=4	=4	=4	=4	=4	=4	=4	=4
2.r;>	2.r;>	.	.	4B\ 4f#	.	4dd\	.	.
!	!	!	!	!	!	!LO:TX:b:i:t=ritar.	!	!
.	.	.	.	4e\ 4b	.	4g#\ 4gg#\	.	.
!	!	!	!	!	!	!LO:TX:t=P:4\left:problem	!	!
.	.	.	.	4B;>\ 4f#)	.	4dd;>\)	.	.
=5||	=5||	=5||	=5||	=5||	=5||	=5||	=5||	=5||
!	!LO:TX:a:i:t=Andantino quasi Allegretto	!	!LO:DY:b:t=p.	!	!	!LO:TX:a:i:t=Andantino quasi allegretto.	!	!
4BB\	2.E\ 2.G# 2.d	.	p	2.r	.	(>8e/L	.	.
!	!	!	!	!	!	!LO:TX:b:i:t=espressivo	!	!LO:HP:b
.	.	.	.	.	.	8f#/J	.	<
4EE\	.	.	.	.	.	4.g#/	.	.
!LO:TX:t=P:4\right:problem	!	!	!	!	!	!	!	!
4BB\	.	.	.	.	.	.	.	.
.	.	.	.	.	.	8e/	.	.
=6	=6	=6	=6	=6	=6	=6	=6	=6
(>4AA\	2E\ 2A 2c#	.	.	2.r	.	8a/L	.	.
.	.	.	.	.	.	8b/J	.	.
!	!	!	!	!	!	!LO:TX:t=P:4\right:problem	!	!
2EE\)	.	.	.	.	.	4cc#\	.	.
!	!	!	!	!	!	!LO:TX:t=P:4\left:problem	!	!
.	[<4F#\ [>4A [>4d	.	.	.	.	4dd\)	.	[[
!!LO:LB:g=original
=7	=7	=7	=7	=7	=7	=7	=7	=7
!	!LO:TX:t=P:problem=brak zakończenia ligatur	!	!	!	!	!LO:TX:t=P:problem=all\right&colon; global	!	!
(>2BB\	2.F#\] 2.A\] 2.d\]	.	.	2.ryy	.	(>4b\	.	.
.	.	.	.	.	.	2f#^</	.	.
4EE\)	.	.	.	.	.	.	.	.
=8	=8	=8	=8	=8	=8	=8	=8	=8
2BB\	2.E\ 2.G#\ 2.d\	.	.	2.ryy	.	4g#/	.	.
.	.	.	.	.	.	2e^>/)	.	.
[<4EE\	.	.	.	.	.	.	.	.
=9	=9	=9	=9	=9	=9	=9	=9	=9
!	!	!	!	!	!	!	!	!LO:HP:b
4EE\]	2.E\ 2.A\ 2.c#\	.	.	2.ryy	.	(>8a/L	.	<
.	.	.	.	.	.	8b/J	.	.
4AA\	.	.	.	.	.	4.cc#\	.	.
4EE\	.	.	.	.	.	.	.	.
!	!	!	!	!	!	!LO:TX:t=P:problem=8\left	!	!
.	.	.	.	.	.	8dd\	.	[[
=10	=10	=10	=10	=10	=10	=10	=10	=10
2BB\	2.F#\ 2.A\ 2.d\	.	.	2.ryy	.	4b\	.	.
.	.	.	.	.	.	2f#/	.	.
4EE\	.	.	.	.	.	.	.	.
=11	=11	=11	=11	=11	=11	=11	=11	=11
4BB\	4E\ 4G#\ 4d\	.	.	2.ryy	.	4e/	.	.
!LO:TX:t=P:4\right:problem	!LO:TX:b:i:t=rit	!	!	!	!	!LO:TX:b:i:t=rit.	!	!
[>4AA\	2E\ 2A\ 2c#\	.	.	.	.	2a/)	.	.
4AAA\ 4AA\]	.	.	.	.	.	.	.	.
=12||	=12||	=12||	=12||	=12||	=12||	=12||	=12||	=12||
!	!	!	!	!LO:TX:t=P:4\right:problem	!	!LO:TX:a:i:t=Tempo I°	!	!
2.r	2.r	.	.	(>4fn\ 4ccn\	.	(>4a\ 4aa\	.	.
*	*	*	*	*2\left	*	*	*	*
!	!LO:TX:b:t=3	!	!	!	!	!	!	!LO:DY:b:rj:t=mf.
.	.	.	.	2cn\) 2gn\	.	2ee-X\)	.	mf
!!LO:LB:g=original
=13	=13	=13	=13	=13	=13	=13	=13	=13
!	!	!	!	!LO:TX:t=P:problem=all\right&colon; global	!	!LO:TX:t=P:problem=all\left&colon; global	!	!
2.r	2.r	.	.	(>4fn\ 4ccn\	.	(>4a\ 4aa\	.	.
*	*	*	*	*2\right	*	*	*	*
.	.	.	.	2cn\ 2gn\)	.	2ee-X\)	.	.
=14	=14	=14	=14	=14	=14	=14	=14	=14
2.r	2.r	.	.	4fn\ 4ccn\	.	4a\ 4aa\	.	pp
!	!	!	!	!LO:TX:t=P:4\left:problem	!	!	!	!
.	.	.	.	4cn\ 4gn\	.	4ee-X\	.	.
!	!	!	!	!LO:TX:t=P:4\left:problem	!	!LO:TX:t=P:problem=all\right&colon; global	!	!
.	.	.	.	4f\ 4cc\	.	4a\ 4aa\	.	.
=15	=15	=15	=15	=15	=15	=15	=15	=15
2.r;>	2.r;>	.	.	4cn\ 4gn\	.	4ee-X\	.	.
.	.	.	.	4fn\ 4ccn	.	4a\ 4aa\	.	.
.	.	.	.	4c;>\ 4g\	.	4ee-;>\	.	.
=16	=16	=16	=16	=16	=16	=16	=16	=16
!LO:TX:t=P:4\right:problem	!	!	!	!	!	!LO:TX:a:i:t=a Tempo	!	!LO:DY:b:t=mf.
4BB\	2.E\ 2.G# 2.d	.	.	(<8e/L	.	(>8een\L	.	mf
.	.	.	.	8f#/J	.	8ff#\J	.	<
!LO:TX:t=P:problem=all\left&colon; global	!	!	!	!	!	!	!	!
4EE\	.	.	.	4.g#/	.	4.gg#\	.	.
4BB\	.	.	.	.	.	.	.	.
.	.	.	.	8e/	.	8ee\	.	.
=17	=17	=17	=17	=17	=17	=17	=17	=17
!	!	!	!	!	!	!LO:TX:t=P:problem=all\left&colon; global	!	!
4AA\	2E\ 2A 2c#	.	.	8a/L	.	8aa\L	.	.
.	.	.	.	8b/J	.	8bb\J	.	.
2EE\	.	.	.	4cc#\	.	4ccc#\	.	.
!	!LO:TX:t=P:problem=all\left&colon; global	!	!	!	!	!	!	!
.	4F#\ 4A\ 4d\	.	.	4dd\)	.	4ddd\)	.	[
=18	=18	=18	=18	=18	=18	=18	=18	=18
2BB\	2.F#\ 2.A 2.d	.	.	(>4b\	.	(>4bb\	.	.
.	.	.	.	2f#/	.	2ff#^>\	.	.
4EE\	.	.	.	.	.	.	.	.
!!LO:LB:g=original
=19	=19	=19	=19	=19	=19	=19	=19	=19
!	!	!	!	!	!	!	!	!LO:HP:b
2BB\	2.E\ 2.G#\ 2.d\	.	.	4g#/	.	4gg#\	.	>
.	.	.	.	2e^>/)	.	2ee^>\)	.	]
[<4EE\	.	.	.	.	.	.	.	.
=20	=20	=20	=20	=20	=20	=20	=20	=20
!	!	!	!	!LO:TX:t=P:problem=all\left&colon; global	!	!	!	!LO:HP:b
4EE\]	2.E\ 2.A\ 2.c#\	.	.	(>8a\L	.	(>8aa\L	.	<
.	.	.	.	8b\J	.	8bb\J	.	.
4AA\	.	.	.	4cc#\	.	4ccc#\	.	.
!	!	!	!	!LO:TX:t=P:problem=all\right&colon; global	!	!	!	!
4EE\	.	.	.	4dd\	.	4ddd\	.	[
=21	=21	=21	=21	=21	=21	=21	=21	=21
2BB\	2.F#\ 2.A\ 2.d\	.	.	4b\	.	4bb\	.	.
!	!	!	!	!	!	!	!	!LO:HP:b
.	.	.	.	2f#/	.	2ff#\	.	>
!LO:TX:t=P:4\right:problem	!	!	!	!	!	!	!	!
4EE\	.	.	.	.	.	.	.	.
=22	=22	=22	=22	=22	=22	=22	=22	=22
4BB\	4E\ 4G#\ 4d\	.	.	4e/	.	4ee\	.	.
!	!LO:TX:b:i:t=rit.	!	!	!	!	!LO:TX:b:i:t=rit.	!	!
[>4AA\	2E\ 2A\ 2c#\	.	.	2a/)	.	2aa\)	.	]]
4AAA\ 4AA\]	.	.	.	.	.	.	.	.
=23||	=23||	=23||	=23||	=23||	=23||	=23||	=23||	=23||
*	*	*	*	*	*	*	*^	*
!	!LO:TX:a:B:i:t=Allegro feroce.	!	!	!	!	!LO:TX:a:Bi:t=Allegro feroce	!	!	!
[<2.EEE\ [>2.EE	4r	.	.	4r	.	4r	.	.	.
!	!LO:TX:t=P:problem=all\right&colon; global	!	!LO:DY:b:rj	!LO:TX:t=P:problem=problem z łukami pomiędzy pięcioliniami	!	!	!	!	!LO:DY:b:rj
.	(>8BB\L	1	ff	N(>8B/L	4	4r	.	.	ff
!	!	!	!LO:HP:b	!	!	!	!	!	!
.	8E\	2	<	8e/J	2	.	.	.	.
.	8G#\	3	.	4r	.	8g#/L	.	2	.
!	!LO:TX:t=P:problem=all\middle&colon; global	!	!	!	!	!LO:TX:b:i:t=legato.	!	!	!LO:HP:b
.	8A#X\J	4	.	.	.	8a#X/J	.	3	<
*	*	*	*	*	*	*	*v	*v	*
=24	=24	=24	=24	=24	=24	=24	=24	=24
!LO:N:vis=2	!	!	!	!	!	!LO:TX:t=P:problem=all\right&colon; global	!	!
2.EEE\_< 2.EE_>	8B\L	.	.	2.r	.	8b\L	1	.
.	8e\	.	.	.	.	8ee\	2	.
.	8g#\	.	.	.	.	8gg#\	3	.
!	!	!	!	!	!	!LO:TX:t=P:problem=all\left&colon; global	!	!
.	8a#X\J	.	[	.	.	8aa#X\J	4	.
.	4b^>\)	.	.	.	.	4bb^>\N)	5	[
!!LO:LB:g=original
=25	=25	=25	=25	=25	=25	=25	=25	=25
!LO:N:vis=2	!	!	!	!	!	!LO:TX:t=P:problem=all\middle&colon; global	!	!
2.EEE\_< 2.EE_>	(>8a#X\L	.	.	2.r	.	N(8aa#X\L	.	.
!	!	!	!LO:DY:b	!	!	!	!	!
.	8b\	.	ff	.	.	8bb\	.	.
!	!	!	!	!	!	!	!	!LO:DY:b
.	8a#\	.	.	.	.	8aa#\	.	ff
.	8g#\	.	.	.	.	8gg#\	.	.
.	8f#\	.	.	.	.	8ff#\	.	.
!	!	!	!	!	!	!LO:TX:t=P:problem=8\right	!	!
.	8B\J	.	.	.	.	8b\J	.	.
=26	=26	=26	=26	=26	=26	=26	=26	=26
!LO:N:vis=2	!	!	!	!	!	!	!	!
2.EEE\] 2.EE]	8A#X\L	.	.	2ryy	.	8a#X/L	.	.
.	8B\	.	.	.	.	8b/	.	.
!	!LO:TX:t=P:problem=all\right&colon; global	!	!	!	!	!	!	!
.	8A#\	.	.	.	.	8a#/	.	.
.	8G#\	.	.	.	.	8g#/J	.	.
.	8F#\	.	.	8f#/L	.	4r	.	.
!	!	!	!LO:HP:b	!	!	!	!	!
.	8BB\J)	.	<	8B/JN)	.	.	.	.
=27	=27	=27	=27	=27	=27	=27	=27	=27
*	*	*	*	*	*	*	*	*^
!LO:N:vis=2	!LO:TX:b:i:t=con forza	!	!	!LO:SIC:v:s=2.d#/	!	!	!	!LO:DY:a	!LO:DY:b
2.BBB^>\	(>8D#X\L 8F#	.	.	2.d/	.	2.f#/	.	sf	sf
.	8C#\	.	.	.	.	.	.	.	.
.	8E\	.	[	.	.	.	.	.	.
.	8D#\	.	.	.	.	.	.	.	.
!	!	!	!LO:HP:b	!	!	!	!	!	!
.	8C#\	.	>	.	.	.	.	.	.
.	8D#\J)	.	]]	.	.	.	.	.	.
*	*	*	*	*	*	*	*	*v	*v
=28	=28	=28	=28	=28	=28	=28	=28	=28
!LO:N:vis=2	!	!LO:TX:t=P:problem=all\middle&colon; global	!	!	!	!	!	!LO:DY:b
[<2.EEE\ [>2.EE	4C#m>\	.	.	4r	.	4r	.	ff
!	!	!	!LO:HP:b	!	!	!	!	!
.	(>8BB\L	.	<	N(>8B/L	.	4r	.	.
.	8E\	.	.	8e/J	.	.	.	.
!	!	!	!	!	!	!LO:TX:b:i:t=legato	!	!
.	8G#\	.	.	4r	.	8g#/L	.	.
.	8A#X\J	.	.	.	.	8a#X/J	.	.
=29	=29	=29	=29	=29	=29	=29	=29	=29
*	*clefG2	*	*	*	*	*	*	*
!LO:N:vis=2	!	!	!	!	!	!LO:TX:t=P:problem=all\left&colon; global	!	!LO:HP:b
2.EEE\_< 2.EE_>	8B/L	.	.	2.ryy	.	8b\L	.	<
.	8e/	.	[	.	.	8ee\	.	.
.	8g#/	.	.	.	.	8gg#\	.	.
.	8a#X/J	.	.	.	.	8aa#X\J	.	.
.	4b^>/)	.	.	.	.	4bb^>\N)	.	[
=30	=30	=30	=30	=30	=30	=30	=30	=30
!LO:N:vis=2	!	!	!LO:DY:b	!	!	!	!	!
2.EEE\_< 2.EE_>	(<8a#X/L	.	ff	2.r	.	N(>8aa#X\L	.	.
!	!	!	!	!	!	!	!	!LO:DY:b
.	8b/	.	.	.	.	8bb\	.	ff
.	8a#/	.	.	.	.	8aa#\	.	.
.	8g#/	.	.	.	.	8gg#\	.	.
.	8f#/	.	.	.	.	8ff#\	.	.
.	8B/J	.	.	.	.	8b\J	.	.
!!LO:LB:g=original
=31	=31	=31	=31	=31	=31	=31	=31	=31
!	!LO:CL:ed	!	!	!	!	!	!	!
*	*clefF4	*	*	*	*	*	*	*
!	!LO:TX:t=P:problem=all\right&colon; global	!	!	!	!	!	!	!
!LO:N:vis=2	!LO:TX:t=P:problem=łuk kończy się od góry, zaczyna od dołu	!	!	!	!	!	!	!
2.EEE\] 2.EE\]	8A#X\L	.	.	2ryy	.	8a#X/L	.	.
.	8B\	.	.	.	.	8b/	.	.
.	8A#\	.	.	.	.	8a#/	.	.
.	8G#\	.	.	.	.	8g#/J	.	.
.	8F#\	.	.	8f#/L	.	4r	.	.
.	8BB\J)	.	.	8B/JN)	.	.	.	.
=32	=32	=32	=32	=32	=32	=32	=32	=32
!LO:N:vis=2	!	!	!LO:HP:b	!LO:SIC:v:s=2.d#/	!	!	!	!LO:DY:a
2.BBB\	(>8D#X\L 8F#\	.	<	2.d/	.	2.f#\ 2.ff#	.	sf
.	8C#\	.	.	.	.	.	.	.
.	8E\	.	.	.	.	.	.	.
.	8D#\	.	[	.	.	.	.	.
!	!	!	!LO:HP:b	!	!	!	!	!
.	8C#\	.	>	.	.	.	.	.
.	8D#\J)	.	]]	.	.	.	.	.
=33	=33	=33	=33	=33	=33	=33	=33	=33
!LO:TX:t=P:problem=all\middle&colon; global	!LO:TX:a:i:t=risoluto	!	!	!	!	!LO:TX:a:t=Con forza.	!	!
4EE\	4BB:\ 4E:\ 4G#:\	.	.	(>8.e/L	.	(>8.ee\L	.	.
!	!	!	!	!	!	!LO:TX:b:i:t=risoluto.	!	!
.	.	.	.	16g#/Jk	.	16gg#\Jk	.	.
!	!	!	!LO:DY:b:rj:t=f.	!	!	!	!	!
4EE\	4BB\ 4E\ 4G#\	.	f	4a#X/	.	4aa#X\	.	.
4EE^>\	4BB^>\ 4E\ 4G#\	.	.	4b^>/	.	4bb^>\	.	.
=34	=34	=34	=34	=34	=34	=34	=34	=34
!	!LO:SIC:v:n=2:s=4D#	!	!	!	!	!	!	!
4EE\	4BB\ 4D\ 4F#\	.	.	8a#X/L	.	8aa#X\L	.	.
.	.	.	.	8b/	.	8bb\	.	.
!	!LO:SIC:v:n=2:s=4D#	!	!	!	!	!	!	!
4EE\	4BB\ 4D\ 4F#\	.	.	8a#/	.	8aa#\	.	.
.	.	.	.	8g#/J	.	8gg#\J	.	.
4EEE^>\ 4EE\	4BB^>\ 4A\ 4B\	.	.	4f#^>/)	.	4ff#^>\)	.	.
=35	=35	=35	=35	=35	=35	=35	=35	=35
4EE\	4BB\ 4G#\ 4B\	.	.	(>8.e/L	.	(>8.ee\L	.	.
.	.	.	.	16g#/Jk	.	16gg#\Jk	.	.
4EE\	4BB\ 4E\ 4G#\	.	.	4a#X/	.	4aa#X\	.	.
4EE^>\	4BB^>\ 4E\ 4G#\	.	.	4b^>/	.	4bb^>\	.	.
=36	=36	=36	=36	=36	=36	=36	=36	=36
!	!LO:SIC:v:n=2:s=4D#	!	!	!	!	!	!	!
4EE\	4BB\ 4D\ 4F#\	.	.	8a#X/L	.	8aa#X\L	.	.
.	.	.	.	8b/	.	8bb\	.	.
!	!LO:SIC:v:n=2:s=4D#	!	!	!	!	!	!	!
4EE\	4BB\ 4D\ 4F#\	.	.	8a#/	.	8aa#\	.	.
.	.	.	.	8g#/J	.	8gg#\J	.	.
!LO:TX:t=P:4\right:problem	!	!	!	!	!	!	!	!
!LO:SIC:v:n=2:s=4EEE\	!	!	!	!	!	!	!	!
4GGG#^>\ 4EE\	4BB^>\ 4A\ 4B\	.	.	4f#^>/)	.	4ff#^>\)	.	.
!!LO:PB:g=original
=37	=37	=37	=37	=37	=37	=37	=37	=37
!LO:TX:t=P:problem=4\middle&colon; global	!LO:TX:t=P:problem=all\right&colon; global	!	!	!	!	!LO:TX:t=P:problem=all\middle&colon; global	!	!
4EE\	4BB\ 4G#\ 4B\	.	.	8.e/L	.	(>8.ee\L	.	.
.	.	.	.	16g#/Jk	.	16gg#\Jk	.	.
4EE\	4BB\ 4E\ 4G#\	.	.	4a#X/	.	4aa#X\	.	.
4EE\	4BB^>\ 4E\ 4G#\	.	.	4b^>/	.	4bb^>\	.	.
=38	=38	=38	=38	=38	=38	=38	=38	=38
!	!LO:SIC:v:n=2:s=4D#	!	!	!	!	!LO:TX:t=P:problem=all\right&colon; global	!	!
4EE\	4BB\ 4D\ 4F#\	.	.	4f#/	.	4ff#\	.	.
!	!LO:TX:b:i:t=rit.	!	!	!	!	!LO:TX:b:i:t=rit	!	!
4EEE\ 4EE\	4BB\ 4A\ 4B\	.	.	8g#/L	.	8gg#\L	.	.
.	.	.	.	8d#X/J	.	8dd#X\J	.	.
!	!LO:TX:t=P:4\left:problem	!	!	!	!	!	!	!
4EE\	4BB\ 4G#\ 4B\	.	.	4e/	.	4ee\)	.	.
=39	=39	=39	=39	=39	=39	=39	=39	=39
!	!LO:TX:a:t=Un poco piu lento:note=podkreślone	!	!	!	!	!LO:TX:b:t=Un poco piu lento	!	!LO:DY:a:t=m.f.
!	!LO:TX:t=P:problem=4\middle	!	!	!	!	!	!	!LO:HP:b=2
(>2.CC#\	(>4E'>\ 4G#\ 4c#\	.	p	(>8.e/L	.	(>2.gg#\	.	mf < [[
.	.	.	.	16g#/Jk	.	.	.	.
!	!LO:TX:b:i:t=leggiero.	!	!	!	!	!	!	!
.	4E'>\ 4G#\ 4c#\	.	.	4a#X/	.	.	.	.
.	4E'>\ 4G#\	.	.	4b/	.	.	.	.
=40	=40	=40	=40	=40	=40	=40	=40	=40
2.FF#\	4C#'\ 4F#\ 4A#X\	.	.	8a#X/L	.	4ff#\	.	.
.	.	.	.	8b/	.	.	.	.
!	!	!	!	!	!	!	!	!LO:HP:b=2
.	4C#'\ 4F#\ 4A#\	.	.	8a#/	.	2cc#\	.	>
.	.	.	.	8g#/J	.	.	.	.
.	4E'\) 4A#\ 4c#\	.	.	4f#/)	.	.	.	]
=41	=41	=41	=41	=41	=41	=41	=41	=41
!	!	!	!	!	!	!	!	!LO:HP:b=2
2.CC#\	(4E\ 4G#\ 4c#\	.	.	(>8.e/L	.	2.ee\	.	<
.	.	.	.	16g#/Jk	.	.	.	.
.	4E\ 4G#\ 4c#\	.	.	4a#X/	.	.	.	.
.	4E\ 4G#\ 4c#\	.	.	4b/	.	.	.	[[
=42	=42	=42	=42	=42	=42	=42	=42	=42
!	!LO:TX:t=P:4\left:problem	!	!	!	!	!LO:TX:t=P:problem=all\left&colon; global	!	!
2FF#\	4E\ 4G#\ 4c#\	.	.	8a#X/L	.	4cc#\)	.	.
.	.	.	.	8b/	.	.	.	.
!	!	!	!	!	!	!	!	!LO:HP:b=2
.	4E\ 4F#\ 4A#X\ 4c#\	.	.	8a#/	.	(>4cc#\	.	>
.	.	.	.	8g#/J	.	.	.	.
4BBB\)	4D#X^>\) 4F#\ 4B\ 4d#X\	.	.	4f#/)	.	4dd#X\)	.	]]
!!LO:LB:g=original
=43	=43	=43	=43	=43	=43	=43	=43	=43
!	!	!	!LO:DY:b:t=p.	!	!	!LO:TX:t=P:problem=all\right&colon; global	!	!
(>2FF#\	(>4E\ 4A#X\ 4c#\	.	p	(>8a#X/L	.	4cc#\	.	.
.	.	.	.	8b/	.	.	.	.
!	!LO:TX:b:i:t=strin-gen-do:dur=6q:ext=s:problem=text with extention lines	!	!	!	!	!LO:TX:b:i:t=strin-gen-do:dur=6q:ext=ud:problem=text with extention lines	!	!
.	4E\ 4A#\ 4c#\	.	.	8a#/	.	(>4cc#\	.	.
.	.	.	.	8g#/J	.	.	.	.
!LO:TX:t=P:problem=4\right&colon; global	!LO:TX:t=P:4\left:problem	!	!	!	!	!	!	!
4BBB\)	4D#X^>\) 4B\ 4d#X\	.	.	4f#^</)	.	4dd#X^>\)	.	.
=44	=44	=44	=44	=44	=44	=44	=44	=44
*2\right	*	*	*	*	*	*	*	*
(>2FF#\	(>4E\ 4A#X\ 4c#\	.	.	(>8a#X/L	.	4cc#\	.	.
.	.	.	.	8b/	.	.	.	.
.	4E\ 4A#\ 4c#\	.	.	8a#/	.	(>4cc#\	.	.
.	.	.	.	8g#/J	.	.	.	.
!	!LO:TX:t=P:problem=4\middle&colon; global	!	!	!	!	!	!	!
4BBB\)	4D#X^>\) 4B\ 4d#X\	.	.	4f#^</)	.	4dd#X^>\)	.	.
=45	=45	=45	=45	=45	=45	=45	=45	=45
(>2FF#\	(>4E\ 4A#X\ 4c#\	.	.	(>8a#X/L	.	4cc#\	.	.
.	.	.	.	8b/	.	.	.	.
.	4E\ 4A#\ 4c#\	.	.	8a#/	.	(>4cc#\	.	.
.	.	.	.	8g#/J	.	.	.	.
4BBB\)	4D\) 4B\ 4d\	.	.	4f#^</)	.	4ddn^>\)	.	.
=46	=46	=46	=46	=46	=46	=46	=46	=46
!	!	!	!	!	!	!LO:TX:b:i:t=rallentan.	!	!
(>2FF#\	(>4E\ 4A\ 4c#\	.	.	(>8a#X/L	.	4cc#\	.	.
.	.	.	.	8b/	.	.	.	.
!	!LO:TX:i:b:t=rallentan.	!	!	!	!	!	!	!
.	4E\ 4A\ 4c#\	.	.	8a#/	.	(>4cc#\	.	.
.	.	.	.	8g#/J	.	.	.	.
4BBB\)	4D\) 4B\ 4d\	.	.	4f#^</)	.	4dd^>\)	.	.
=47	=47	=47	=47	=47	=47	=47	=47	=47
!	!	!	!LO:DY:b:t=p.	!	!	!LO:TX:a:i:t=Tempo I°	!	!
[>2.EE\	2.r	.	p	(>4e/ 4b/	.	(>4g#\ 4gg#\	.	.
.	.	.	.	2B^>/) 2f#/	.	2dd^>\)	.	.
=48	=48	=48	=48	=48	=48	=48	=48	=48
2.EE\]	2.r	.	.	4e/ 4b/	.	(>4g#\ 4gg#\	.	.
.	.	.	.	2B/ 2f#/	.	2dd\)	.	.
!!LO:LB:g=original
=49	=49	=49	=49	=49	=49	=49	=49	=49
!	!	!	!	!	!	!LO:TX:b:t=due pedale.	!	!
!LO:TX:t=P:problem=4\right&colon; global	!LO:TX:t=P:problem=4\right&colon; global	!	!LO:DY:b:t=pp.	!	!	!LO:TX:t=P:problem=all\left&colon; global	!	!
4E\ 4B\	(>4G#\	.	pp	4g#/	.	4gg#\	.	.
!	!LO:TX:t=P:4\left:problem	!	!	!	!	!	!	!
4BB\ 4F#\	4d\	.	.	4r	.	2ee\TT>	.	.
4E\ 4B\	4G#\ 4g#\	.	.	4r	.	.	.	.
=50	=50	=50	=50	=50	=50	=50	=50	=50
4BB\ 4F#\	4d\	.	.	2.r;>	.	4gg#\	.	.
4E\ 4B\	4G#\ 4g#\	.	.	.	.	2eeTT>;>\	.	.
!	!LO:TX:t=P:4\left:problem	!	!	!	!	!	!	!
4BB;>\ 4F#\	4d;\)	.	.	.	.	.	.	.
=51	=51	=51	=51	=51	=51	=51	=51	=51
!	!LO:TX:a:t=Andantino, quasi Allegretto.	!	!	!	!	!LO:TX:a:t=Andantino, quasi allegretto.	!	!
4BB\	2.G#\ 2.B\ 2.d\	.	p	(<8e/L	.	2.eeTTT>\	.	p
.	.	.	.	8f#/J	.	.	.	.
!LO:TX:t=P:problem=4\middle	!	!	!	!LO:TX:a:i:t=marcato il canto;	!	!	!	!
4EE\	.	.	.	4.g#/	.	.	.	.
4BB\	.	.	.	.	.	.	.	.
.	.	.	.	8e/	.	.	.	.
=52	=52	=52	=52	=52	=52	=52	=52	=52
!	!LO:N:vis=2.	!	!	!	!	!	!	!
4AA\	2E\ 2A\ 2c#\	.	.	8a/L	.	2.ee\TTT>	.	.
.	.	.	.	8b/J	.	.	.	.
*2\left	*	*	*	*	*	*	*	*
!	!	!	!	!LO:TX:t=P:problem=all\right&colon; global	!	!	!	!
2EE\	.	.	.	4cc#\	.	.	.	.
.	4F#\ 4A\ 4d\	.	.	4dd\)	.	.	.	.
=53	=53	=53	=53	=53	=53	=53	=53	=53
2BB\	2.F#\ 2.A\ 2.d\	.	.	(<4b/	.	[<4ee\TTT>	.	.
*	*	*	*	*	*	*Xtuplet	*	*
*	*	*	*	*	*	*cue	*	*
!	!	!	!	!	!	!	!	!LO:HP:b
!	!	!	!	!	!	!	!	!LO:DY:b:t=pp.
.	.	.	.	2f#^>/)	.	(>28ee\L]	.	pp <
!	!	!	!	!	!	!LO:TX:b:i:t=veloce	!	!
.	.	.	.	.	.	28ff#\	.	.
.	.	.	.	.	.	28gg#\	.	.
.	.	.	.	.	.	28aa\	.	.
.	.	.	.	.	.	28bb\	.	.
.	.	.	.	.	.	28ccc#\	.	.
.	.	.	.	.	.	28ddd\	.	.
!LO:TX:t=P:problem=4\middle&colon; global	!	!	!	!	!	!	!	!
4EE\	.	.	.	.	.	28eee\	.	.
.	.	.	.	.	.	28ddd\	.	.
.	.	.	.	.	.	28ccc#\	.	.
.	.	.	.	.	.	28bb\	.	.
.	.	.	.	.	.	28aa\	.	.
.	.	.	.	.	.	28gg#\	.	.
.	.	.	.	.	.	28ff#\J)	.	.
=54	=54	=54	=54	=54	=54	=54	=54	=54
2BB\	2.E\ 2.G#\ 2.d\	.	.	(<4g#/	.	(>24ee\L	.	.
.	.	.	.	.	.	24ff#\	.	.
.	.	.	.	.	.	24gg#\	.	.
.	.	.	.	.	.	24aa\	.	.
.	.	.	.	.	.	24bb\	.	.
.	.	.	.	.	.	24ccc#\	.	.
.	.	.	.	2e/)	.	24ddd\	.	.
.	.	.	.	.	.	24eee\	.	.
.	.	.	.	.	.	24fff#\	.	.
.	.	.	.	.	.	24ggg#\	.	.
*	*	*	*	*	*	*8va	*	*
.	.	.	.	.	.	24aaa\	.	.
.	.	.	.	.	.	24bbb\	.	.
[>4EE\	.	.	.	.	.	24cccc#\	.	.
.	.	.	.	.	.	24dddd\	.	.
.	.	.	.	.	.	24eeee\	.	.
.	.	.	.	.	.	24dddd\	.	.
.	.	.	.	.	.	24cccc#\	.	.
.	.	.	.	.	.	24bbb\J	.	[[
*	*	*	*	*	*	*X8va	*	*
!!LO:LB:g=original
=55	=55	=55	=55	=55	=55	=55	=55	=55
!	!	!	!	!LO:TX:t=P:problem=all\right&colon; global	!	!	!	!LO:HP:b
4EE\]	2.E\ 2.A\ 2.c#\	.	.	(>8a\L	.	20aaa\L	.	>
.	.	.	.	.	.	20ggg#\	.	.
.	.	.	.	.	.	20fff#\	.	.
.	.	.	.	8b\J	.	.	.	.
.	.	.	.	.	.	20eee\	.	.
.	.	.	.	.	.	20ddd\	.	.
!LO:TX:t=P:problem=4\right&colon; global	!	!	!	!	!	!	!	!
4AA\	.	.	.	4.cc#\	.	20ccc#\	.	.
.	.	.	.	.	.	20bb\	.	.
.	.	.	.	.	.	20aa\	.	.
.	.	.	.	.	.	20gg#\	.	.
.	.	.	.	.	.	20ff#\J	.	]
!LO:TX:t=P:problem=4\middle	!	!	!	!	!	!LO:TX:t=P:4\left:problem	!	!
4EE\	.	.	.	.	.	4eeTT>\)	.	.
.	.	.	.	8dd\	.	.	.	.
=56	=56	=56	=56	=56	=56	=56	=56	=56
*2\right	*	*	*	*	*	*	*	*
!	!	!	!	!	!	!LO:TX:t=P:4\right:problem	!	!
2BB\	2.F#\ 2.A\ 2.d\	.	.	4b/	.	4ee\TTT>	.	.
!	!	!	!	!	!	!	!	!LO:HP:b
.	.	.	.	2f#^</	.	(>28ee\L	.	<
.	.	.	.	.	.	28ff#\	.	.
.	.	.	.	.	.	28gg#\	.	.
.	.	.	.	.	.	28aa\	.	.
.	.	.	.	.	.	28bb\	.	.
.	.	.	.	.	.	28ccc#\	.	.
.	.	.	.	.	.	28ddd\	.	.
4EE\	.	.	.	.	.	28eee\	.	.
.	.	.	.	.	.	28ddd\	.	[
.	.	.	.	.	.	28ccc#\	.	.
.	.	.	.	.	.	28bb\	.	.
!	!	!	!	!	!	!	!	!LO:HP:b
.	.	.	.	.	.	28aa\	.	>
.	.	.	.	.	.	28gg#\	.	.
.	.	.	.	.	.	28ff#\J)	.	.
=57	=57	=57	=57	=57	=57	=57	=57	=57
!	!LO:TX:t=P:4\right:problem	!	!	!	!	!LO:TX:b:i:t=veloce.	!	!
4BB\	4E\ 4G#\ 4d\	.	.	4e/	.	(>24ee\L	.	.
.	.	.	.	.	.	24ff#\	.	.
!	!	!	!	!	!	!	!	!LO:HP:b
.	.	.	.	.	.	24gg#\	.	] <
.	.	.	.	.	.	24aa\	.	.
.	.	.	.	.	.	24bb\	.	.
.	.	.	.	.	.	24ccc#\	.	.
[>4AA\	2E\ 2A\ 2c#\	.	.	2a^>/)	.	24ddd\	.	.
.	.	.	.	.	.	24eee\	.	.
.	.	.	.	.	.	24fff#\	.	.
.	.	.	.	.	.	24ggg#\	.	.
*	*	*	*	*	*	*8va	*	*
.	.	.	.	.	.	24aaa\	.	.
.	.	.	.	.	.	24bbb\	.	.
4AAA\ 4AA\]	.	.	.	.	.	24cccc#\	.	.
.	.	.	.	.	.	24dddd\	.	.
.	.	.	.	.	.	24eeee\	.	.
.	.	.	.	.	.	24ffff#\	.	.
.	.	.	.	.	.	24gggg#\	.	.
!	!	!	!	!	!	!LO:TX:b:i:t=rit.	!	!
.	.	.	.	.	.	24aaaa\J)	.	[
*	*	*	*	*	*	*Xcue	*	*
*	*	*	*	*	*	*X8va	*	*
=58||	=58||	=58||	=58||	=58||	=58||	=58||	=58||	=58||
*	*	*	*	*	*	*	*^	*
*2\left	*	*	*	*	*	*	*	*	*
!	!LO:TX:a:i:t=Allegro feroce.	!	!	!	!	!LO:TX:a:i:t=Allegro feroce	!	!	!
[<2.DDD\ [>\2.DD	4r	.	f	4r	.	4r	.	.	.
!	!LO:TX:t=P:problem=8\right&colon; global	!	!	!LO:TX:t=P:problem=problem z łukami między systemami	!	!	!	!	!LO:DY:b:rj
.	(>8AA\L	1	.	N(>8A/L	4	4r	.	.	f
.	8D\	2	<	8d/J	2	.	.	.	.
!	!	!	!	!	!	!	!	!	!LO:HP:b
.	8F#\	3	.	4r	.	8f#/L	.	2	<
.	8G#\J	4	.	.	.	8g#/J	.	3	.
*	*	*	*	*	*	*	*v	*v	*
=59	=59	=59	=59	=59	=59	=59	=59	=59
!	!LO:TX:t=P:problem=all\middle&colon; global	!	!	!	!	!LO:TX:t=P:problem=all\right&colon; global	!	!
2.DDD\_< 2.DD\_>	8A\L	1	.	2.r	.	8a\L	1	.
.	8d\	2	.	.	.	8dd\	2	.
.	8f#\	3	.	.	.	8ff#\	3	.
.	8g#\J	4	.	.	.	8gg#\J	4	.
.	4a^>\)	5	[	.	.	4aa^>\N)	5	[
!!LO:LB:g=original
=60	=60	=60	=60	=60	=60	=60	=60	=60
!	!LO:TX:t=P:problem=all\middle&colon; global	!	!	!	!	!LO:TX:t=P:problem=8\left	!	!
2.DDD\_< 2.DD\_>	(>8g#\L	.	ff	2.r	.	N(>8gg#\L	.	.
!	!	!	!	!	!	!	!	!LO:DY:b
.	8a\	.	.	.	.	8aa\	.	ff
.	8g#\	.	.	.	.	8gg#\	.	.
.	8f#\	.	.	.	.	8ff#\	.	.
.	8e\	.	.	.	.	8ee\	.	.
.	8A\J	.	.	.	.	8a\J	.	.
=61	=61	=61	=61	=61	=61	=61	=61	=61
!	!LO:TX:t=P:problem=all\right&colon; global	!	!	!	!	!	!	!
2.DDD\] 2.DD\]	8G#\L	.	.	4r	.	8g#/L	.	.
.	8A\	.	.	.	.	8a/	.	.
.	8G#\	.	.	4r	.	8g#/	.	.
.	8F#\	.	.	.	.	8f#/J	.	.
.	8E\	.	.	8e/L	.	4r	.	.
.	8AA\J)	.	.	8A/JN)	.	.	.	.
=62	=62	=62	=62	=62	=62	=62	=62	=62
!	!	!	!	!	!	!	!	!LO:DY:b:t=sf.
2.AAA^\	(>8C#\L 8E\	.	<	2.c#^>/	.	2.e^>/	.	sf
.	8BB\	.	.	.	.	.	.	.
.	8D\	.	.	.	.	.	.	.
.	8C#\	.	.	.	.	.	.	.
.	8BB\	.	[ >	.	.	.	.	.
.	8C#\J)	.	]]	.	.	.	.	.
=63	=63	=63	=63	=63	=63	=63	=63	=63
[<2.DDD\ [>2.DD\	4BB^<M>/	.	.	4r	.	4r	.	.
!	!	!	!	!	!	!	!	!LO:DY:b:rj
.	(>8AA\L	.	.	N(>8A/L	.	4r	.	f
.	8D\	.	.	8d/J	.	.	.	.
.	8F#\	.	.	4r	.	8f#/L	.	<
.	8G#\J	.	.	.	.	8g#/J	.	.
*	*clefG2	*	*	*	*	*	*	*
=64	=64	=64	=64	=64	=64	=64	=64	=64
2.DDD\_< 2.DD\_>	8A/L	.	.	2.r	.	8a\L	.	.
.	8d/	.	.	.	.	8dd\	.	.
.	8f#/	.	.	.	.	8ff#\	.	.
.	8g#/J	.	.	.	.	8gg#\J	.	.
.	4a^>/)	.	.	.	.	4aa^>\N)	.	[
=65	=65	=65	=65	=65	=65	=65	=65	=65
!	!	!	!	!	!	!LO:TX:t=P:problem=8\left	!	!
2.DDD\_< 2.DD\_>	(>8g#/L	.	.	2.r	.	N(>8gg#\L	.	.
!	!	!	!	!	!	!	!	!LO:DY:b:rj
.	8a/	.	.	.	.	8aa\	.	ff
.	8g#/	.	.	.	.	8gg#\	.	.
.	8f#/	.	.	.	.	8ff#\	.	.
.	8e/	.	.	.	.	8ee\	.	.
.	8A/J	.	.	.	.	8a\J	.	.
*	*clefF4	*	*	*	*	*	*	*
!!LO:LB:g=original
=66	=66	=66	=66	=66	=66	=66	=66	=66
2.DDD\] 2.DD\]	8G#\L	.	.	4r	.	8g#/L	.	.
.	8A\	.	.	.	.	8a/	.	.
.	8G#\	.	.	4r	.	8g#/	.	.
.	8F#\	.	.	.	.	8f#/J	.	.
.	8E\	.	.	8e/L	.	4r	.	.
.	8AA\J)	.	.	8A/JN)	.	.	.	.
=67	=67	=67	=67	=67	=67	=67	=67	=67
*	*	*	*	*2\right	*	*2\right	*	*
!	!	!	!LO:HP:b	!	!	!	!	!LO:DY:a
2.AAA\	(>8C#\L 8E\	.	<	2.c#^>\	.	2.e\ 2.ee\	.	sf
.	8BB\	.	.	.	.	.	.	.
.	8D\	.	.	.	.	.	.	.
.	8C#\	.	[	.	.	.	.	.
.	8BB\	.	.	.	.	.	.	.
.	8AA\J)	.	.	.	.	.	.	.
=68	=68	=68	=68	=68	=68	=68	=68	=68
!	!	!	!	!	!	!LO:TX:b:i:t=Con forza	!	!
!LO:TX:t=P:problem=all\right&colon; global	!LO:TX:a:i:t=risoluto.	!	!LO:DY:b	!	!	!LO:TX:a:i:t=Risoluto	!	!
4DD\	4AA\ 4D\ 4F#\	.	f	(>8.d/L	.	8.dd\L	.	.
.	.	.	.	16f#/Jk	.	16ff#\Jk	.	.
4DD\	4AA\ 4D\ 4F#\	.	.	4g#/	.	4gg#\	.	.
4DD^>\	4AA^>\ 4F#\	.	.	4a^>/	.	4aa^\	.	.
=69	=69	=69	=69	=69	=69	=69	=69	=69
4DD\	4AA\ 4E\	.	.	8g#/L	.	8gg#\L	.	.
.	.	.	.	8a/	.	8aa\	.	.
4DD\	4AA\ 4E\	.	.	8g#/	.	8gg#\	.	.
.	.	.	.	8f#/J	.	8ff#\J	.	.
!LO:TX:t=P:problem=4\middle	!	!	!	!	!	!	!	!
4DDD^>\ 4DD	4AA^>\ 4Gn\ 4A\	.	.	4e^>/)	.	4ee^\	.	.
=70	=70	=70	=70	=70	=70	=70	=70	=70
!	!	!	!	!	!	!	!	!LO:DY:b
4DD\	4AA\ 4F#\ 4A\	.	.	(>8.d/L	.	8.dd\L	.	f
!	!	!	!	!	!	!LO:TX:t=P:problem=16\left	!	!
.	.	.	.	16f#/Jk	.	16ff#\Jk	.	.
!	!	!	!	!	!	!LO:TX:t=P:4\left:problem	!	!
4DD\	4AA\ 4F#\	.	.	4g#/	.	4gg#\	.	.
4DD^>\	4AA^>\ 4F#\	.	.	4a^>/	.	4aa^>\	.	.
=71	=71	=71	=71	=71	=71	=71	=71	=71
4DD\	4AA\ 4E\	.	.	8g#/L	.	8gg#\L	.	.
.	.	.	.	8a/	.	8aa\	.	.
4DD\	4AA\ 4E\	.	.	8g#/	.	8gg#\	.	.
.	.	.	.	8f#/J	.	8ff#\J	.	.
!LO:TX:t=P:problem=4\middle	!	!	!	!	!	!LO:TX:t=P:4\left:problem	!	!
4DDD^>\ 4DD\	4AA^>\ 4Gn\ 4A\	.	.	4e^>/)	.	4ee^>\	.	.
!!LO:PB:g=original
=72	=72	=72	=72	=72	=72	=72	=72	=72
!LO:TX:t=P:problem=all\right&colon; global	!LO:TX:t=P:problem=all\right&colon; global	!	!	!	!	!LO:TX:t=P:problem=all\right&colon; global	!	!
4DD'>\	(>4AA'>\ 4F#\ 4A\	.	.	8.d/L	.	(>8.dd\L	.	.
.	.	.	.	16f#/Jk	.	16ff#\Jk	.	.
4DD'>\	4AA'>\ 4F#\	.	.	4g#/	.	4gg#\	.	.
4DD'^>\	4AA^>\ 4F#\	.	.	4a/	.	4aa\	.	.
=73	=73	=73	=73	=73	=73	=73	=73	=73
!LO:TX:t=P:problem=4\left&colon; global	!	!	!	!	!	!	!	!
4DD\	4AA'>\ 4C#\ 4E\	.	.	4e/	.	4ee\	.	.
!	!LO:TX:b:i:t=rit	!	!	!	!	!	!	!
4DDD\ 4DD\	4AA'>\ 4Gn\ 4A\	.	.	8f#/L	.	8ff#\L	.	.
!	!	!	!	!	!	!LO:TX:b:i:t=rit	!	!
.	.	.	.	8c#/J	.	8cc#\J	.	.
!LO:TX:t=P:4\right:problem	!	!	!	!	!	!	!	!
4DD\	4AA\) 4F#\ 4A\	.	.	4d/	.	4dd\)	.	.
=74	=74	=74	=74	=74	=74	=74	=74	=74
*	*	*	*	*	*	*2\left	*	*
!	!LO:TX:b:t=leggiero.	!	!	!	!	!	!	!
!	!LO:TX:a:i:t=Un poco piu lento.	!	!	!	!	!LO:TX:b:i:t=un poco piu lento.	!	!LO:HP:b=2
2.BBB\	(>4D'>\ 4F#\ 4B\	.	.	(>8.d/L	.	(>2.ff#\	.	mf < [[
.	.	.	.	16f#/Jk	.	.	.	.
.	4D'>\ 4F#\ 4B\	.	.	4g#/	.	.	.	.
.	4D'>\ 4F#\	.	.	4a/	.	.	.	.
=75	=75	=75	=75	=75	=75	=75	=75	=75
2.EE\	4BB'>\ 4E\ 4G#\	.	.	8g#/L	.	4ee\	.	.
!	!	!	!	!	!	!	!	!LO:HP:b=2
.	.	.	.	8a/	.	.	.	>
.	4BB'>\ 4E\ 4G#\	.	.	8g#/	.	2b\	.	.
.	.	.	.	8f#/J	.	.	.	.
.	4D'>\) 4G#\ 4B\	.	.	4e/)	.	.	.	]
=76	=76	=76	=76	=76	=76	=76	=76	=76
!	!	!	!	!	!	!	!	!LO:HP:b=2
2.BBB\	(>4D'>\ 4F#\ 4B\	.	.	(>8.d/L	.	2.dd\	.	<[
.	.	.	.	16f#/Jk	.	.	.	.
.	4D'>\ 4F#\ 4B\	.	.	4g#/	.	.	.	.
.	4D'>\ 4F#\ 4B\	.	.	4a/	.	.	.	.
=77	=77	=77	=77	=77	=77	=77	=77	=77
2EE\	4D'>\ 4F#\ 4B\	.	.	8g#/L	.	4b\)	.	.
.	.	.	.	8a/	.	.	.	.
!	!	!	!	!	!	!	!	!LO:HP:b=2
.	4D'>\ 4E\ 4G#\ 4B\	.	.	8g#/	.	(>4b\	.	>
.	.	.	.	8f#/J	.	.	.	.
4AAA^>\	4C#^>\) 4E\ 4A\ 4c#\	.	.	4e^>/)	.	4cc#\	.	]]
!!LO:LB:g=original
=78	=78	=78	=78	=78	=78	=78	=78	=78
!	!	!	!	!	!	!LO:TX:t=P:problem=brak zakończenia łuku	!	!
(>2EE\	(>4D\ 4G#\ 4B\	.	.	(<8g#/L	.	4b\)	.	.
.	.	.	.	8a/	.	.	.	.
!	!LO:TX:b:i:t=strin-gen-do.:dur=6q:ext=ud:problem=text with extention lines	!	!	!	!	!LO:TX:b:i:t=strin-gen-do.:dur=6q:ext=ud:problem=text with extention lines	!	!
.	4D\ 4G#\ 4B\	.	.	8g#/	.	(>4b\	.	.
.	.	.	.	8f#/J	.	.	.	.
!LO:TX:t=P:problem=4\middle&colon; global	!	!	!	!	!	!	!	!
4AAA\)	4C#^>\) 4A\ 4c#\	.	.	4e^>/)	.	4cc#^>\)	.	.
=79	=79	=79	=79	=79	=79	=79	=79	=79
(>2EE\	(>4D\ 4G#\ 4B\	.	.	(<8g#/L	.	4b\	.	.
.	.	.	.	8a/	.	.	.	.
.	4D\ 4G#\ 4B\	.	.	8g#/	.	(>4b\	.	.
.	.	.	.	8f#/J	.	.	.	.
4AAA\)	4C#^>\) 4A\ 4c#\	.	.	4e^>/)	.	4cc#^<\)	.	.
=80	=80	=80	=80	=80	=80	=80	=80	=80
(>2FF#\	(>4E\ 4A#X\ 4c#\	.	.	(<8a#X/L	.	4cc#\	.	.
.	.	.	.	8b/	.	.	.	.
.	4E\ 4A#\ 4c#\	.	.	8a#/	.	(>4cc#\	.	.
.	.	.	.	8g#/J	.	.	.	.
!LO:TX:t=P:problem=4\right&colon; global	!	!	!	!	!	!	!	!
4BBB\)	4D\) 4B\ 4d\	.	.	4f#^>/)	.	4dd^<\)	.	.
=81	=81	=81	=81	=81	=81	=81	=81	=81
!	!	!	!	!	!	!LO:TX:b:i:t=rallentan.	!	!
(>2FF#\	(>4E\ 4A#X\ 4c#\	.	.	8a#X/L	.	4cc#\	.	.
.	.	.	.	8b/	.	.	.	.
!LO:TX:a:i:t=rallent.	!LO:TX:t=P:problem=4\middle	!	!	!	!	!	!	!
.	4E\ 4A#\ 4c#\	.	.	8a#/	.	(>4cc#\	.	.
.	.	.	.	8g#/J	.	.	.	.
4BBB\)	4D\) 4B\ 4d\	.	.	4f#/	.	4dd^>\)	.	.
=82	=82	=82	=82	=82	=82	=82	=82	=82
*	*	*	*	*ped	*	*	*	*
!	!	!	!LO:DY:b:t=p.	!LO:TX:t=P:problem=ped zapisane jako "Pedale."	!	!	!	!LO:DY:b
*ped	*	*	*	*	*	*	*	*
!LO:TX:t=P:problem=ped oznaczone jako "pedale."	!	!	!	!	!	!	!	!
2.EE^>\	4G#\ 4d\	.	p	[<2.f#/ [>/2.g#	.	[>2.dd\	.	mf
*	*2\right	*	*	*	*	*	*	*
.	2B^>\	.	.	.	.	.	.	.
=83	=83	=83	=83	=83	=83	=83	=83	=83
2.EE^>\	4r	.	.	2.f#/] 2.g#/]	.	2.dd\]	.	.
*	*2\left	*	*	*	*	*	*	*
.	2B^>\	.	.	.	.	.	.	.
!!LO:LB:g=original
=84	=84	=84	=84	=84	=84	=84	=84	=84
!	!	!	!	!	!	!LO:TX:b:i:t=due pedale	!	!LO:DY:b:t=p.
!	!	!	!	!	!	!	!	!LO:HP:b
2EE\	4r	.	.	2f#/ 2g#/	.	2dd\	.	p >
!	!LO:TX:t=P:problem=all\left&colon; global	!	!	!	!	!	!	!
.	4B^>\	.	.	.	.	.	.	.
!	!	!	!	!	!	!LO:TX:t=P:problem=4\left&colon; global	!	!
!LO:TX:t=P:problem=4\right&colon; global	!LO:TX:b:i:t=poco ritar.	!	!	!	!	!LO:TX:b:i:t=poco ritardan.	!	!
[>4EE\	4r	.	.	[<4f#/ [>4g#/	.	[>4dd\	.	]
=85	=85	=85	=85	=85	=85	=85	=85	=85
4EE\]	4B^>\	.	.	4f#/] 4g#/]	.	4dd\]	.	.
2EE\;>	4r	.	.	2f#;>/ 2g#/	.	2dd;>\	.	pp
!	!LO:TX:t=P:problem=4\middle	!	!	!	!	!	!	!
.	4B;>\	.	.	.	.	.	.	.
=86	=86	=86	=86	=86	=86	=86	=86	=86
*ped	*	*	*	*	*	*	*	*
!	!	!	!LO:HP:b	!	!	!LO:TX:t=P:problem=all\right&colon; global	!	!
!LO:TX:b:t=P:problem=ped oznaczone jako "con ped."	!LO:TX:a:t=Allegro molto.	!	!LO:DY:b:t=f.	!	!	!LO:TX:a:t=Allegro molto.	!	!
4r	2E\ 2G#\ 2B\	.	f <	(>8e/L	.	(>8ee\L	.	f
.	.	.	.	8f#/J	.	8ff#\J	.	<
!LO:TX:t=P:problem=4\middle&colon; global	!	!	!	!	!	!	!	!
4AAA^>\ 4EE\	.	.	.	4g#/	.	4gg#\	.	.
4r	4E\ 4G#\ 4B\	.	.	4e^>/	.	4ee^>\	.	.
=87	=87	=87	=87	=87	=87	=87	=87	=87
4r	2E\ 2A\ 2c#\	.	.	8a/L	.	8aa\L	.	.
.	.	.	.	8b/J	.	8bb\J	.	.
!	!	!	!	!LO:TX:t=P:problem=4\left&colon; global	!	!	!	!
4AAA^>\ 4EE\	.	.	.	4cc#\	.	4ccc#\	.	.
4r	4F#\ 4A\ 4d\	.	[	4dd^>\)	.	4ddd^>\)	.	[
=88	=88	=88	=88	=88	=88	=88	=88	=88
*	*2\right	*	*	*	*	*	*	*
!	!	!	!	!LO:TX:t=P:4\right:problem	!	!	!	!
4r	2D\ 2F#\ 2B\	.	.	(>4b\	.	(>4bb\	.	.
!	!	!	!	!	!	!	!	!LO:DY:b
4AAA^>\ 4EE\	.	.	.	2f#/)	.	2ff#\)	.	sf
4r	4BB\ 4F#\ 4B\	.	.	.	.	.	.	.
=89	=89	=89	=89	=89	=89	=89	=89	=89
*	*2\left	*	*	*	*	*	*	*
4r	2BB\ 2E\ 2B\	.	.	(>4g#/	.	(>4gg#\	.	.
!	!	!	!	!	!	!	!	!LO:DY:b
4AAA^>\ 4EE\	.	.	.	2e/)	.	2ee\)	.	sf
4r	4E\ 4G#\ 4B\	.	.	.	.	.	.	.
!!LO:LB:g=original
=90	=90	=90	=90	=90	=90	=90	=90	=90
!	!	!	!LO:HP:b	!LO:TX:t=P:problem=all\right&colon; global	!	!LO:TX:t=P:problem=all\middle&colon; global	!	!LO:HP:b
4r	2E\ 2A\ 2c#\	.	<	(>8a\L	.	(>8aa\L	.	<
.	.	.	.	8b\J	.	8bb\J	.	.
!LO:TX:t=P:problem=4\middle&colon; global	!	!	!	!	!	!	!	!
4AAA^>\ 4EE\	.	.	.	4cc#\	.	4ccc#\	.	.
!	!LO:TX:t=P:problem=4\middle&colon; global	!	!	!	!	!	!	!
4r	4F#\ 4A\ 4d\	.	.	4dd\	.	4ddd\	.	[[
=91	=91	=91	=91	=91	=91	=91	=91	=91
!	!	!	!	!	!	!LO:TX:t=P:problem=4\right&colon; global	!	!
4r	2D\ 2F#\ 2B\	.	.	4b\	.	4bb\	.	.
4AAA^>\ 4EE\	.	.	.	2f#^>/	.	2ff#^>\	.	.
4r	4BB\ 4F#\ 4B\	.	[	.	.	.	.	.
=92	=92	=92	=92	=92	=92	=92	=92	=92
4r	2BB\ 2E\ 2B\	.	.	4g#/	.	4gg#\	.	.
!	!	!	!	!	!	!	!	!LO:HP:b
4AAA^>\ 4EE\	.	.	.	2e^>/)	.	2ee^>\)	.	<
!	!LO:TX:t=P:problem=4\left&colon; global	!	!	!	!	!	!	!
4r	4E\ 4G#\ 4B\	.	.	.	.	.	.	.
=93	=93	=93	=93	=93	=93	=93	=93	=93
*	*2\right	*	*	*	*	*	*	*
!	!	!	!	!	!	!LO:TX:t=P:problem=all\middle&colon; global	!	!
4r	2E\ 2A\ 2c#\	.	.	(>8a\L	.	(>8aa\L	.	.
.	.	.	.	8b\J	.	8bb\J	.	.
4AAA^>\ 4EE\	.	.	.	4cc#\	.	4ccc#\	.	.
!	!	!	!LO:DY:b:rj	!	!	!	!	!
4r	4A\ 4c#\ 4f#\	.	ff	4ff#^>\	.	4fff#^\	.	[
=94	=94	=94	=94	=94	=94	=94	=94	=94
!	!	!	!	!	!	!	!	!LO:DY:b:rj:t=ff.
4r	2A\ 2B\ 2f#\	.	.	8ee\L	.	8eee\L	.	ff
.	.	.	.	8dd#X\J	.	8ddd#X\J	.	.
4AAA^>\ 4EE\	.	.	.	4b\	.	4bb\	.	.
4r	4A\ 4B\ 4f#\	.	.	4cc#^>\	.	4ccc#^>\	.	.
=95	=95	=95	=95	=95	=95	=95	=95	=95
*	*2\left	*	*	*	*	*	*	*
!	!	!	!	!	!	!	!	!LO:HP:b
4r	2G#\ 2B\ 2e\	.	.	2ddn^>\	.	2dddn^>\	.	>
4AAA^>\ 4EE\	.	.	.	.	.	.	.	.
!	!LO:TX:t=P:4\right:problem	!	!	!	!	!	!	!
4r	4E^>\ 4G#\ 4d\ 4e\	.	.	8cc#\L	.	8ccc#\L	.	.
.	.	.	.	8b\J)	.	8bb\J)	.	]]
!!LO:LB:g=original
=96	=96	=96	=96	=96	=96	=96	=96	=96
*	*2\right	*	*	*	*	*	*	*
!	!	!	!	!	!	!	!	!LO:HP:b
4r	2E\ 2A\ 2c#\ 2e\	.	.	(>8a\L	.	(>8aa\L	.	<
.	.	.	.	8b\J	.	8bb\J	.	.
!LO:TX:t=P:problem=4\middle&colon; global	!	!	!	!	!	!	!	!
4AAA^>\ 4EE	.	.	.	4cc#\	.	4ccc#\	.	.
!	!LO:TX:t=P:4\left:problem	!	!	!	!	!	!	!
4r	4A\ 4c#\ 4f#\	.	.	4ff#^>\	.	4fff#^\	.	[[
=97	=97	=97	=97	=97	=97	=97	=97	=97
!	!	!	!LO:HP:b	!	!	!	!	!LO:DY:b
4r	2A\ 2B\ 2f#\	.	>	8ee\L	.	8eee\L	.	ff
.	.	.	.	8dd#X\J	.	8ddd#X\J	.	.
4AAA^>\ 4EE	.	.	.	4b\	.	4bb\	.	.
!	!LO:TX:t=P:problem=4\right&colon; global	!	!	!	!	!	!	!
4r	4A\ 4B\ 4f#\	.	.	4cc#^>\	.	4ccc#^>\	.	.
=98	=98	=98	=98	=98	=98	=98	=98	=98
*	*	*	*	*2\left	*	*	*	*
!	!	!	!	!	!	!	!	!LO:HP:b
4r	2G#\ 2B\ 2e\	.	.	2ddn^>\	.	2dddn^>\	.	>
4AAA^>\ 4EE	.	.	.	.	.	.	.	.
4r	4E\ 4G#\ 4d\ 4e\	.	]]	8cc#\L	.	8ccc#\L	.	.
.	.	.	.	8b\J)	.	8bb\J)	.	]]
=99	=99	=99	=99	=99	=99	=99	=99	=99
!	!	!	!	!	!	!	!	!LO:HP:b:i:t=molto diminuendo e rall.
[<2.AAA\ [>2.EE	4E\ 4A\ 4c#\ 4e\	.	.	(<4a/	.	(>4aa\	.	>
*	*2\left	*	*	*	*	*	*	*
!	!	!	!LO:DY:b:t=p.	!	!	!	!	!
.	[<2E^>\ [>2e\	.	p	4dd\	.	4ff#\	.	.
.	.	.	.	4g#/	.	4gg#\	.	.
=100	=100	=100	=100	=100	=100	=100	=100	=100
!	!	!	!LO:HP:b	!	!	!LO:TX:t=P:problem=all\right&colon; global	!	!
2.AAA\] 2.EE]	2.E\] 2.e\]	.	>	4a/	.	4cc#\ 4ee\	.	.
!	!	!	!	!	!	!LO:TX:t=P:problem=4\middle	!	!
.	.	.	.	4f#/	.	4a\ 4aa\	.	.
.	.	.	.	4b\	.	4dd\ 4ff#\	.	.
=101	=101	=101	=101	=101	=101	=101	=101	=101
[>2.AAA\	[<2.EE^>/ [>2.E/	.	]	4e/	.	4g#\ 4gg#\	.	.
.	.	.	.	4a/	.	4cc#\ 4ee\	.	.
!	!	!	!	!	!	!LO:TX:t=P:problem=4\middle	!	!
.	.	.	.	4f#/)	.	4a\ 4aa\	.	]]
!!LO:LB:g=original
=102	=102	=102	=102	=102	=102	=102	=102	=102
!	!	!	!	!LO:TX:t=P:problem=4\right&colon; global	!	!LO:TX:t=P:problem=all\right&colon; global	!	!LO:HP:b
2.AAA\_<	2.EE/_< 2.E_>	.	.	(>4b\	.	4dd\ 4ff#\	.	>
!	!	!	!	!	!	!LO:TX:t=P:4\left:problem	!	!
.	.	.	.	4e/	.	4g#\ 4gg#\	.	.
.	.	.	.	4a/	.	4cc#\ 4ee\	.	.
=103	=103	=103	=103	=103	=103	=103	=103	=103
!	!	!	!	!	!	!LO:TX:t=P:problem=4\middle	!	!
2.AAA\]	2.EE/] 2.E]	.	.	4f#/	.	4a\ 4aa\	.	]
.	.	.	.	4b/	.	4dd\ 4ff#\	.	.
.	.	.	.	4e/)	.	4g#\ 4gg#\)	.	.
=104	=104	=104	=104	=104	=104	=104	=104	=104
2.r;>	2.r;>	.	.	2.r;>	.	2.r;>	.	.
=105	=105	=105	=105	=105	=105	=105	=105	=105
*	*clefG2	*	*	*	*	*	*	*
!LO:TX:t=P:problem=4\left&colon; global	!LO:TX:a:t=Allegro molto.	!	!LO:DY:b:rj	!	!	!LO:TX:a:t=Allegro molto.	!	!
4BB\	4B/ 4b/	.	ff	2.r	.	2.r	.	.
2FF#\	2F#</ 2f#/^>	.	.	.	.	.	.	.
=106	=106	=106	=106	=106	=106	=106	=106	=106
*	*clefF4	*	*	*	*	*	*	*
!	!LO:TX:t=P:4\right:problem	!	!	!	!	!	!	!LO:DY:b:rj
4EE\	4E\ 4G#\ 4d\ 4e\	.	.	4b\ 4dd\ 4ee\	.	4gg#\ 4eee\	.	ff
!	!	!	!LO:DY:a:t=sf.	!	!	!	!	!LO:DY:b:t=sf.
2AAA\ 2AA\	2E\ 2A\ 2c#\ 2e\	.	sf	2a\ 2cc#\ 2ee\	.	2aa^>\ 2ccc#\ 2aaa\	.	sf
==	==	==	==	==	==	==	==	==
*-	*-	*-	*-	*-	*-	*-	*-	*-
!!!system-decoration: [{g1}][{g2}]
!!!RDF**kern: > = above
!!!RDF**kern: < = below
!!!RDF**kern: N = linked
!!!ENC: Andrzej Kubiczek
!!!END: 2021-11-09
!!!EED: Jędrzej Mróz
!!!ESR: 2021-11-23
!!!YEC: Copyright 2022 Narodowy Instytut Fryderyka Chopina (https://polishscores.org)
!!!YEM: Licence CC BY 4.0 (https://creativecommons.org/licenses/by/4.0)
